img/guarantee/icon1.svg

<svg width="57" height="57" viewBox="0 0 57 57" fill="none" xmlns="http://www.w3.org/2000/svg">
<circle cx="28.5" cy="28.5" r="28" stroke="#009CA1"/>
<g clip-path="url(#clip0_3132_3808)">
<path fill-rule="evenodd" clip-rule="evenodd" d="M14.9375 26.6562V38.375H21.2687H27.5998L27.6615 38.5519C27.7608 38.8368 28.1727 39.6687 28.3716 39.9863C29.0261 41.0313 30.0389 42.0525 31.0854 42.7225C31.8203 43.1932 32.8634 43.6095 33.8702 43.834C34.7316 44.0261 36.3614 44.0269 37.2434 43.8357C38.9316 43.4697 40.299 42.7255 41.5122 41.5122C42.7255 40.299 43.4697 38.9316 43.8357 37.2434C44.0269 36.3614 44.0261 34.7316 43.834 33.8702C43.2418 31.215 41.5906 29.1025 39.2111 27.9556C38.9458 27.8278 38.6492 27.6954 38.5519 27.6615L38.375 27.5998V21.2687V14.9375H26.6562H14.9375V26.6562ZM15.875 26.6562V37.4375H21.5879C24.73 37.4375 27.3008 37.4158 27.3008 37.3892C27.3008 37.3627 27.2586 37.0661 27.207 36.73C27.0174 35.495 27.1805 33.9194 27.6252 32.6914C28.4681 30.3634 30.3634 28.4681 32.6914 27.6252C33.9194 27.1805 35.495 27.0174 36.73 27.207C37.0661 27.2586 37.3627 27.3008 37.3892 27.3008C37.4158 27.3008 37.4375 24.73 37.4375 21.5879V15.875H33.9219H30.4062V19.5141C30.4062 22.4021 30.3911 23.147 30.333 23.1235C30.2928 23.1072 29.4484 22.7452 28.4567 22.3191L26.6536 21.5444L24.8825 22.3096C23.9083 22.7305 23.0652 23.0925 23.0088 23.114C22.9118 23.1511 22.9062 22.9557 22.9062 19.5141V15.875H19.3906H15.875V26.6562ZM23.8437 18.7995V21.7241L25.25 21.1191L26.6562 20.5142L28.0625 21.1191L29.4687 21.7241V18.7995V15.875H26.6562H23.8437V18.7995ZM34.6036 28.1247C32.8728 28.3653 31.3795 29.1298 30.1505 30.4046C27.3705 33.2885 27.3864 37.86 30.1866 40.7565C33.0578 43.7267 37.7644 43.824 40.7204 40.9744C41.8447 39.8906 42.5448 38.6463 42.8919 37.1152C43.0808 36.2816 43.0802 34.8544 42.8906 34.0098C42.2395 31.1101 40.0716 28.9189 37.2031 28.2614C36.4975 28.0996 35.2545 28.0343 34.6036 28.1247Z" fill="#02C0D0"/>
<path d="M17.2812 32.75C17.5401 32.75 17.75 32.5401 17.75 32.2812C17.75 32.0224 17.5401 31.8125 17.2812 31.8125C17.0224 31.8125 16.8125 32.0224 16.8125 32.2812C16.8125 32.5401 17.0224 32.75 17.2812 32.75Z" fill="#02C0D0"/>
<path d="M19.1562 32.75C19.4151 32.75 19.625 32.5401 19.625 32.2812C19.625 32.0224 19.4151 31.8125 19.1562 31.8125C18.8974 31.8125 18.6875 32.0224 18.6875 32.2812C18.6875 32.5401 18.8974 32.75 19.1562 32.75Z" fill="#02C0D0"/>
<path d="M21.0312 33.6875H17.2812C17.0224 33.6875 16.8125 33.8974 16.8125 34.1562C16.8125 34.4151 17.0224 34.625 17.2812 34.625H21.0312C21.2901 34.625 21.5 34.4151 21.5 34.1562C21.5 33.8974 21.2901 33.6875 21.0312 33.6875Z" fill="#02C0D0"/>
<path d="M21.0312 35.5625H17.2812C17.0224 35.5625 16.8125 35.7724 16.8125 36.0312C16.8125 36.2901 17.0224 36.5 17.2812 36.5H21.0312C21.2901 36.5 21.5 36.2901 21.5 36.0312C21.5 35.7724 21.2901 35.5625 21.0312 35.5625Z" fill="#02C0D0"/>
<path d="M31.959 31.9297L39.2246 39.1953" stroke="#02C0D0" stroke-width="0.9375" stroke-linecap="round"/>
<path d="M39.1953 31.9297L31.9297 39.1953" stroke="#02C0D0" stroke-width="0.9375" stroke-linecap="round"/>
</g>
<defs>
<clipPath id="clip0_3132_3808">
<rect width="30" height="30" fill="white" transform="translate(14 14)"/>
</clipPath>
</defs>
</svg>

<svg width="57" height="57" fill="none" xmlns="http://www.w3.org/2000/svg"><circle cx="28.5" cy="28.5" r="28" stroke="#009CA1"/><g clip-path="url(#clip0_3132_3808)"><path fill-rule="evenodd" clip-rule="evenodd" d="M14.938 26.656v11.719H27.6l.061.177c.1.285.512 1.117.71 1.434a9.229 9.229 0 002.714 2.736c.735.471 1.778.887 2.785 1.112.862.192 2.491.193 3.373.002 1.689-.366 3.056-1.11 4.27-2.324 1.212-1.213 1.957-2.58 2.323-4.269.19-.882.19-2.511-.002-3.373-.592-2.655-2.243-4.767-4.623-5.914a9.643 9.643 0 00-.66-.294l-.176-.062V14.938H14.938v11.718zm.937 0v10.782h5.713c3.142 0 5.713-.022 5.713-.049 0-.026-.042-.323-.094-.659-.19-1.235-.027-2.81.418-4.039a8.54 8.54 0 015.066-5.066c1.228-.445 2.804-.608 4.039-.418.336.052.633.094.66.094.026 0 .047-2.571.047-5.713v-5.713h-7.03v3.64c0 2.887-.015 3.632-.073 3.608-.04-.016-.885-.378-1.876-.804l-1.803-.775-1.771.766c-.975.42-1.818.783-1.874.804-.097.037-.103-.158-.103-3.6v-3.639h-7.032v10.781zm7.969-7.857v2.925l1.406-.605 1.406-.605 1.407.605 1.406.605v-5.849h-5.625v2.924zm10.76 9.326c-1.731.24-3.224 1.005-4.453 2.28-2.78 2.883-2.765 7.455.036 10.352 2.87 2.97 7.577 3.067 10.533.217 1.125-1.083 1.825-2.328 2.172-3.859.189-.833.188-2.26-.001-3.105-.651-2.9-2.82-5.091-5.688-5.749-.706-.161-1.949-.227-2.6-.136z" fill="#02C0D0"/><path d="M17.281 32.75a.469.469 0 100-.938.469.469 0 000 .938zm1.875 0a.469.469 0 100-.938.469.469 0 000 .938zm1.875.938h-3.75a.469.469 0 000 .937h3.75a.469.469 0 000-.938zm0 1.875h-3.75a.469.469 0 000 .937h3.75a.469.469 0 000-.938z" fill="#02C0D0"/><path d="M31.959 31.93l7.266 7.265m-.03-7.265l-7.265 7.265" stroke="#02C0D0" stroke-width=".938" stroke-linecap="round"/></g><defs><clipPath id="clip0_3132_3808"><path fill="#fff" transform="translate(14 14)" d="M0 0h30v30H0z"/></clipPath></defs></svg>
